Gruvbox-Plus-Dark/actions/16/task-due.svg

<svg width="16" height="16" version="1.1" viewBox="0 0 16 16" xmlns="http://www.w3.org/2000/svg">
  <defs>
    <style type="text/css">.ColorScheme-Text { color:#ebdbb2; } .ColorScheme-Highlight { color:#458588; } .ColorScheme-NegativeText { color:#fb4934; }</style>
  </defs>
 <path class="ColorScheme-Text" d="m8 0a2 2 0 0 0-2 2h-4c-0.554 0-1 0.446-1 1v11c0 0.554 0.446 1 1 1h9v-3h-7v-1h7v-2h-7v-1h7v-2h-7v-1h8v1h3v-3c0-0.554-0.446-1-1-1h-4a2 2 0 0 0-2-2zm0 1a1 1 0 0 1 1 1 1 1 0 0 1-1 1 1 1 0 0 1-1-1 1 1 0 0 1 1-1z" fill="currentColor"/>
 <path class="ColorScheme-NegativeText" d="m12 7v4l0.375 2h2.25l0.375-2v-4zm0 7v2h3v-2z" fill="currentColor"/>
</svg>

<svg xmlns="http://www.w3.org/2000/svg" width="16" height="16" version="1.1" viewBox="0 0 16 16">
 <defs>
  <style id="current-color-scheme" type="text/css">
   .ColorScheme-Text { color:#ebdbb2; } .ColorScheme-Highlight { color:#458588; }
  </style>
 </defs>
 <path style="fill:currentColor" class="ColorScheme-Text" d="M 8,0 A 2,2 0 0 0 6,2 H 2 C 1.446,2 1,2.446 1,3 v 11 c 0,0.554 0.446,1 1,1 h 9 V 12 H 4 v -1 h 7 V 9 H 4 V 8 h 7 V 6 H 4 V 5 h 8 v 1 h 3 V 3 C 15,2.446 14.554,2 14,2 H 10 A 2,2 0 0 0 8,0 Z M 8,1 A 1,1 0 0 1 9,2 1,1 0 0 1 8,3 1,1 0 0 1 7,2 1,1 0 0 1 8,1 Z"/>
 <path style="fill:currentColor" class="ColorScheme-Highlight" d="m 12,7 v 4 l 0.25,2 h 1.5 L 14,11 V 7 Z m 0,7 v 2 h 2 v -2 z"/>
</svg>
